X: 20135
T: Jimmy's Tune
R: reel
M: 4/4
K: Gmajor
BG G2 AGED|GA (3Bcd efge|dB B2 gedB|AcBG AGED|
BG G2 AGED|GA (3Bcd efge|dB B2 gedB|GBAF G4||
g3f gedB|GB B2 GA (3Bcd|g3f gedB|eA A2 (3Bcd ef|
g3f gedB|d2 (3Bcd gBdB|GA (3Bcd gedB|GBAF G4||

